file/juniper-networks.svg

<svg clip-rule="evenodd" fill-rule="evenodd" stroke-linejoin="round" stroke-miterlimit="1.41421" viewBox="0 0 560 400" xmlns="http://www.w3.org/2000/svg"><g fill-rule="nonzero" transform="matrix(.931588 0 0 .931588 94.0322 60.3549)"><path d="m210.55 181.912h2.099v20.453h-1.991l-12.614-17.363v17.363h-2.098v-20.453h2.374l12.23 16.865zm9.493 10.875h11.071v-2.044h-11.071v-6.759h11.347v-2.072h-13.526v20.453h13.637v-1.988h-11.458zm14.63-8.805h7.674v18.385h2.183v-18.385h7.674v-2.071h-17.531zm40.631 14.849-5.465-16.919h-1.876l-5.495 16.919-5.38-16.919h-2.237l6.598 20.591h1.904l5.494-17.03 5.522 17.03h1.873l6.571-20.591h-2.098zm30.06-6.706c0 7.314-3.753 10.573-10.324 10.573-6.541 0-10.267-3.259-10.267-10.573 0-7.287 3.726-10.543 10.267-10.543 6.571 0 10.324 3.256 10.324 10.543zm-2.179.027c0-5.522-2.566-8.501-8.145-8.501-5.549 0-8.088 2.979-8.088 8.501 0 5.549 2.539 8.531 8.088 8.531 5.579 0 8.145-2.982 8.145-8.531zm17.112 1.794 4.94 8.42h-2.317l-4.856-8.336h-6.13v8.336h-2.125v-20.453h8.834c4.748 0 6.9 1.904 6.9 5.963 0 3.531-1.684 5.602-5.246 6.07zm3.064-6.016c0-3.175-1.739-4.002-4.772-4.002h-6.655v8.114h6.736c2.899 0 4.691-.884 4.691-4.112zm21.807-6.016h-2.512l-10.351 11.289v-11.289h-2.125v20.452h2.125v-6.379l4.086-4.469 7.314 10.848h2.458l-8.336-12.422zm11.762 8.858c-3.645-.662-5.771-1.157-5.771-3.753 0-2.428 1.574-3.45 5.243-3.45 2.32 0 4.499.635 5.962 1.601l1.16-1.766c-1.627-1.106-3.917-1.823-7.122-1.823-4.859 0-7.398 1.544-7.398 5.495 0 4.137 2.983 4.883 7.398 5.657 3.672.662 6.1 1.076 6.1 3.975 0 2.814-1.876 4.001-6.1 4.001-2.455 0-4.859-.524-7.314-2.068l-1.103 1.655c2.593 1.711 5.384 2.344 8.474 2.344 5.576 0 8.169-1.958 8.169-6.017 0-4.388-3.229-5.051-7.698-5.851z" fill="#61849c"/><path d="m392.843 97.661v6.46c-2.031-.239-4.287-.373-6.83-.373-23.738 0-23.197 10.986-23.197 24.687v44.621h-6.779v-44.621c0-18.177 1.22-31.06 29.976-31.06 2.475 0 4.735.101 6.83.286zm-288.366 45.825c0 13.701.541 24.687-23.194 24.687-23.869 0-23.735-10.986-23.735-24.007v-45.301h-6.917v45.166c0 17.632 1.762 30.518 30.652 30.518 28.753 0 29.977-12.886 29.977-31.063v-44.621h-6.783zm48.231-46.111c-28.752 0-29.973 12.883-29.973 31.059v44.622h6.78v-44.622c0-13.7-.545-24.686 23.193-24.686 23.87 0 23.735 10.986 23.735 24.007v45.301h6.918v-45.166c0-17.632-1.762-30.515-30.653-30.515zm43.241 75.665h6.638v-74.054h-6.638zm78.723-50.301c0 15.291-7.694 24.586-25.08 24.586h-27.935v25.732h-6.638v-74.053h34.667c17.191 0 24.986 8.545 24.986 23.735zm-6.954.296c0-11.787-6.423-17.386-18.227-17.386h-27.834v35.017h28.13c11.979 0 17.931-5.838 17.931-17.631zm78.568 13.941h-57.236c.134 18.042 4.607 31.469 28.073 31.469 12.479 0 18.176-3.393 24.28-7.865l3.793 5.017c-6.78 5.017-14.78 8.952-28.073 8.952-29.294 0-34.722-16.956-34.722-38.791s6.242-38.656 34.184-38.656c28.887 0 29.835 19.394 29.701 39.874zm-6.649-6.238c-.676-14.783-1.627-27.397-23.193-27.397-20.749 0-26.446 11.258-27.26 27.397zm-307.458 27.328c0 13.697.541 24.687-23.194 24.687-.898 0-1.748-.024-2.579-.058v6.397c.834.02 1.692.033 2.579.033 28.753 0 29.977-12.883 29.977-31.059v-59.2h-6.783z" fill="#231f20"/></g></svg>

<?xml version="1.0" encoding="UTF-8" standalone="no"?>
<!DOCTYPE svg PUBLIC "-//W3C//DTD SVG 1.1//EN" "http://www.w3.org/Graphics/SVG/1.1/DTD/svg11.dtd">
<svg width="100%" height="100%" viewBox="0 0 560 400" version="1.1" xmlns="http://www.w3.org/2000/svg" xmlns:xlink="http://www.w3.org/1999/xlink" xml:space="preserve" xmlns:serif="http://www.serif.com/" style="fill-rule:evenodd;clip-rule:evenodd;stroke-linejoin:round;stroke-miterlimit:1.41421;">
    <g transform="matrix(0.931588,0,0,0.931588,94.0322,60.3549)">
        <path id="logo_2_" d="M210.55,181.912L212.649,181.912L212.649,202.365L210.658,202.365L198.044,185.002L198.044,202.365L195.946,202.365L195.946,181.912L198.32,181.912L210.55,198.777L210.55,181.912L210.55,181.912ZM220.043,192.787L231.114,192.787L231.114,190.743L220.043,190.743L220.043,183.984L231.39,183.984L231.39,181.912L217.864,181.912L217.864,202.365L231.501,202.365L231.501,200.377L220.043,200.377L220.043,192.787ZM234.673,183.982L242.347,183.982L242.347,202.367L244.53,202.367L244.53,183.982L252.204,183.982L252.204,181.911L234.673,181.911L234.673,183.982ZM275.304,198.831L269.839,181.912L267.963,181.912L262.468,198.831L257.088,181.912L254.851,181.912L261.449,202.503L263.353,202.503L268.847,185.473L274.369,202.503L276.242,202.503L282.813,181.912L280.715,181.912L275.304,198.831ZM305.364,192.125C305.364,199.439 301.611,202.698 295.04,202.698C288.499,202.698 284.773,199.439 284.773,192.125C284.773,184.838 288.499,181.582 295.04,181.582C301.611,181.582 305.364,184.838 305.364,192.125ZM303.185,192.152C303.185,186.63 300.619,183.651 295.04,183.651C289.491,183.651 286.952,186.63 286.952,192.152C286.952,197.701 289.491,200.683 295.04,200.683C300.619,200.683 303.185,197.701 303.185,192.152ZM320.297,193.946L325.237,202.366L322.92,202.366L318.064,194.03L311.934,194.03L311.934,202.366L309.809,202.366L309.809,181.913L318.643,181.913C323.391,181.913 325.543,183.817 325.543,187.876C325.543,191.407 323.859,193.478 320.297,193.946ZM323.361,187.93C323.361,184.755 321.622,183.928 318.589,183.928L311.934,183.928L311.934,192.042L318.67,192.042C321.569,192.042 323.361,191.158 323.361,187.93ZM345.168,181.914L342.656,181.914L332.305,193.203L332.305,181.914L330.18,181.914L330.18,202.366L332.305,202.366L332.305,195.987L336.391,191.518L343.705,202.366L346.163,202.366L337.827,189.944L345.168,181.914ZM356.93,190.772C353.285,190.11 351.159,189.615 351.159,187.019C351.159,184.591 352.733,183.569 356.402,183.569C358.722,183.569 360.901,184.204 362.364,185.17L363.524,183.404C361.897,182.298 359.607,181.581 356.402,181.581C351.543,181.581 349.004,183.125 349.004,187.076C349.004,191.213 351.987,191.959 356.402,192.733C360.074,193.395 362.502,193.809 362.502,196.708C362.502,199.522 360.626,200.709 356.402,200.709C353.947,200.709 351.543,200.185 349.088,198.641L347.985,200.296C350.578,202.007 353.369,202.64 356.459,202.64C362.035,202.64 364.628,200.682 364.628,196.623C364.628,192.235 361.399,191.572 356.93,190.772Z" style="fill:rgb(97,132,156);fill-rule:nonzero;"/>
        <path id="logo_1_" d="M392.843,97.661L392.843,104.121C390.812,103.882 388.556,103.748 386.013,103.748C362.275,103.748 362.816,114.734 362.816,128.435L362.816,173.056L356.037,173.056L356.037,128.435C356.037,110.258 357.257,97.375 386.013,97.375C388.488,97.375 390.748,97.476 392.843,97.661ZM104.477,143.486C104.477,157.187 105.018,168.173 81.283,168.173C57.414,168.173 57.548,157.187 57.548,144.166L57.548,98.865L50.631,98.865L50.631,144.031C50.631,161.663 52.393,174.549 81.283,174.549C110.036,174.549 111.26,161.663 111.26,143.486L111.26,98.865L104.477,98.865L104.477,143.486L104.477,143.486ZM152.708,97.375C123.956,97.375 122.735,110.258 122.735,128.434L122.735,173.056L129.515,173.056L129.515,128.434C129.515,114.734 128.97,103.748 152.708,103.748C176.578,103.748 176.443,114.734 176.443,127.755L176.443,173.056L183.361,173.056L183.361,127.89C183.361,110.258 181.599,97.375 152.708,97.375ZM195.949,173.04L202.587,173.04L202.587,98.986L195.949,98.986L195.949,173.04ZM274.672,122.739C274.672,138.03 266.978,147.325 249.592,147.325L221.657,147.325L221.657,173.057L215.019,173.057L215.019,99.004L249.686,99.004C266.877,99.004 274.672,107.549 274.672,122.739ZM267.718,123.035C267.718,111.248 261.295,105.649 249.491,105.649L221.657,105.649L221.657,140.666L249.787,140.666C261.766,140.666 267.718,134.828 267.718,123.035ZM346.286,136.976L289.05,136.976C289.184,155.018 293.657,168.445 317.123,168.445C329.602,168.445 335.299,165.052 341.403,160.58L345.196,165.597C338.416,170.614 330.416,174.549 317.123,174.549C287.829,174.549 282.401,157.593 282.401,135.758C282.401,113.923 288.643,97.102 316.585,97.102C345.472,97.102 346.42,116.496 346.286,136.976ZM339.637,130.738C338.961,115.955 338.01,103.341 316.444,103.341C295.695,103.341 289.998,114.599 289.184,130.738L339.637,130.738ZM32.179,158.066C32.179,171.763 32.72,182.753 8.985,182.753C8.087,182.753 7.237,182.729 6.406,182.695L6.406,189.092C7.24,189.112 8.098,189.125 8.985,189.125C37.738,189.125 38.962,176.242 38.962,158.066L38.962,98.866L32.179,98.866L32.179,158.066Z" style="fill:rgb(35,31,32);fill-rule:nonzero;"/>
    </g>
</svg>
